!!!ONB: MCCC : IJB0065_05 : Extracted Monophonic Melody
!!!COM: Bach, Johann Sebastian
!!!OPR: Cello Suite No.3
!!!OMV: 5
!!!SCT: BWV 1009
!!!ODT: 1717///
**kern
*thru
*staff1
*clefF4
*k[]
*C:
*M2/2
*>A
8E
8F
=1
4G
8C
8BB
4C
4c
=2
4B
8A
8B
4G
8D
8E
=3
4F
8BB
8AA
4BB
4G
=4
8F
8E
8D
8E
4C
8c
8B
=5
8A
8B
8c
8G
8F#
8B
8c
8E
=6
8D
8B
8c
8C
8BB
8D
8F#
8A
=7
4d
8B
8G
4D
4F#
=8
4G
4D
4GG
*>A
8E
8F
=1
4G
8C
8BB
4C
4c
=2
4B
8A
8B
4G
8D
8E
=3
4F
8BB
8AA
4BB
4G
=4
8F
8E
8D
8E
4C
8c
8B
=5
8A
8B
8c
8G
8F#
8B
8c
8E
=6
8D
8B
8c
8C
8BB
8D
8F#
8A
=7
4d
8B
8G
4D
4F#
=8
4G
4D
4GG
*>B
8B
8c
=9
4d
8B
8G
4F
4B
=10
8E
8G
8c
8d
4e
8c
8G#
=11
4A
8F
8A
8D
8c
8B
8A
=12
8E
8A
8G#
8F#
4E
8B
8E
=13
8c
8A
8G#
8A
8B
8E
8c
8E
=14
8d
8B
8A
8B
8c
8E
8d
8D
=15
8C
8e
8B
8c
4E
8A
8G#
=16
4A
4E
4AA
8A
8B
=17
4c
8F#
8E
4F#
4D
=18
8GG
8D
8c
8A
4B
8G
8F
=19
8E
8G
8c
8E
8D
8f
8e
8c
=20
8d
8c
8B
8A
4G
8B
8c
=21
8d
8B
8G
8A
8B
8G
8D
8E
=22
8F
8D
8BB
8C
8D
8BB
8GG
8F
=23
8E
8C
8GG
8G
8E
8C
8GG
8c
=24
8G
8E
8F
8D
8E
8C
8GG
8E
=25
8D
8E
8F
8C
8BB
8E
8F
8AA
=26
8GG
8E
8F
8FF
8EE
8GG
8BB
8D
=27
4G
8E
8C
4GG
4BB
=28
2.C
*>B
8B
8c
=9
4d
8B
8G
4F
4B
=10
8E
8G
8c
8d
4e
8c
8G#
=11
4A
8F
8A
8D
8c
8B
8A
=12
8E
8A
8G#
8F#
4E
8B
8E
=13
8c
8A
8G#
8A
8B
8E
8c
8E
=14
8d
8B
8A
8B
8c
8E
8d
8D
=15
8C
8e
8B
8c
4E
8A
8G#
=16
4A
4E
4AA
8A
8B
=17
4c
8F#
8E
4F#
4D
=18
8GG
8D
8c
8A
4B
8G
8F
=19
8E
8G
8c
8E
8D
8f
8e
8c
=20
8d
8c
8B
8A
4G
8B
8c
=21
8d
8B
8G
8A
8B
8G
8D
8E
=22
8F
8D
8BB
8C
8D
8BB
8GG
8F
=23
8E
8C
8GG
8G
8E
8C
8GG
8c
=24
8G
8E
8F
8D
8E
8C
8GG
8E
=25
8D
8E
8F
8C
8BB
8E
8F
8AA
=26
8GG
8E
8F
8FF
8EE
8GG
8BB
8D
=27
4G
8E
8C
4GG
4BB
=28
2.C
==
*-
